icons/agriculture_worker.svg

<svg width="48" height="48" viewBox="0 0 48 48" fill="none" xmlns="http://www.w3.org/2000/svg">
<path fill-rule="evenodd" clip-rule="evenodd" d="M31.4142 12.7139L30 8C30 6.89543 27.0125 6 24 6C20.9875 6 18 6.89543 18 8L16.5858 12.7139C13.2098 13.4364 11 14.6388 11 16C11 18.2091 16.8203 20 24 20C31.1797 20 37 18.2091 37 16C37 14.6388 34.7902 13.4364 31.4142 12.7139ZM28.1322 8.73404C27.9991 8.66639 27.7982 8.58021 27.5164 8.48944C26.6231 8.20166 25.3346 8 24 8C22.6654 8 21.3769 8.20166 20.4836 8.48944C20.2018 8.58021 20.0009 8.66639 19.8678 8.73405L19.1368 11.171C19.3324 11.1984 19.5558 11.2276 19.8043 11.2568C20.8362 11.3782 22.2965 11.5 24 11.5C25.7035 11.5 27.1638 11.3782 28.1957 11.2568C28.4442 11.2276 28.6676 11.1984 28.8632 11.171L28.1322 8.73404ZM29.4442 13.1076C29.1715 13.1487 28.8301 13.196 28.4293 13.2432C27.3362 13.3718 25.7965 13.5 24 13.5C22.2035 13.5 20.6638 13.3717 19.5707 13.2431C19.1699 13.196 18.8285 13.1487 18.5558 13.1076L18.1615 14.422L17.0044 14.6696C15.4205 15.0085 14.2481 15.4342 13.5249 15.8506C13.4308 15.9048 13.351 15.9545 13.2836 15.9995C13.7038 16.2833 14.3974 16.6097 15.3958 16.9169C17.51 17.5674 20.5525 18 24 18C27.4475 18 30.49 17.5674 32.6042 16.9169C33.6026 16.6097 34.2962 16.2833 34.7164 15.9995C34.649 15.9545 34.5692 15.9048 34.4751 15.8506C33.7519 15.4342 32.5795 15.0085 30.9956 14.6696L29.8385 14.422L29.4442 13.1076ZM35.0629 16.293C35.0626 16.293 35.0599 16.2894 35.0557 16.282C35.0611 16.2892 35.0632 16.2929 35.0629 16.293ZM35.0603 15.7141C35.0664 15.7034 35.0705 15.6982 35.0711 15.6982C35.0717 15.6983 35.0686 15.7036 35.0603 15.7141ZM12.9289 15.6982C12.9295 15.6982 12.9336 15.7034 12.9397 15.7141C12.9314 15.7036 12.9283 15.6983 12.9289 15.6982ZM12.9371 16.293C12.9374 16.293 12.9401 16.2894 12.9443 16.282C12.9433 16.2833 12.9424 16.2846 12.9416 16.2857C12.9382 16.2905 12.9369 16.293 12.9371 16.293ZM19.6789 8.84762C19.6699 8.85464 19.6661 8.85819 19.6665 8.85822C19.667 8.85825 19.673 8.85367 19.6831 8.84439C19.6816 8.84554 19.6802 8.84661 19.6789 8.84762ZM28.3169 8.84439C28.3289 8.85355 28.3339 8.85819 28.3335 8.85822C28.333 8.85825 28.327 8.85367 28.3169 8.84439Z" fill="black"/>
<path d="M16.0015 19.1535C16.0833 23.5009 19.633 27 24 27C28.367 27 31.9168 23.5009 31.9986 19.1535C31.3681 19.3051 30.6909 19.4392 29.9748 19.5535C29.6955 22.6077 27.1271 25 24 25C20.8729 25 18.3045 22.6077 18.0252 19.5535C17.3091 19.4392 16.632 19.3051 16.0015 19.1535Z" fill="black"/>
<path fill-rule="evenodd" clip-rule="evenodd" d="M13.8293 42C13.9399 41.6872 14.0001 41.3506 14.0001 41V40H34.0001V37H30.3486C30.2948 37.0183 30.2358 37.0379 30.1717 37.0587C29.8361 37.1675 29.3611 37.3079 28.7706 37.4468C27.5932 37.7239 25.9367 38 24.0001 38C22.0634 38 20.4069 37.7239 19.2295 37.4468C18.639 37.3079 18.164 37.1675 17.8284 37.0587C17.7643 37.0379 17.7053 37.0183 17.6515 37H15.3178C16.0879 36.488 16.733 35.8028 17.1974 35H18L18.0001 29.4139C20.2048 29.1219 22.3329 29 24.0001 29C30.0076 29 42.0001 30.5833 42.0001 36V42H13.8293ZM38.8353 34.2233C39.7524 34.9085 40.0001 35.4942 40.0001 36V40H36.0001V36C36.0001 35.4477 35.5523 35 35.0001 35L35 32.4788C36.632 32.9689 37.9488 33.561 38.8353 34.2233ZM30 31.4321C31.0034 31.5711 32.0171 31.7467 33 31.9633V35H30.0001L30 31.4321ZM24.0001 31C25.1526 31 26.5331 31.0616 28 31.2V35.5706C26.9645 35.795 25.5848 36 24.0001 36C22.4153 36 21.0355 35.795 20 35.5706V31.2C21.467 31.0616 22.8475 31 24.0001 31Z" fill="black"/>
<path d="M8 25C8 24.4477 7.55228 24 7 24C6.44772 24 6 24.4477 6 25V32C6 34.2091 7.79086 36 10 36V41C10 41.5523 10.4477 42 11 42C11.5523 42 12 41.5523 12 41V36C14.2091 36 16 34.2091 16 32V25C16 24.4477 15.5523 24 15 24C14.4477 24 14 24.4477 14 25V32C14 33.1046 13.1046 34 12 34V25C12 24.4477 11.5523 24 11 24C10.4477 24 10 24.4477 10 25V34C8.89543 34 8 33.1046 8 32V25Z" fill="black"/>
</svg>

<svg
  xmlns="http://www.w3.org/2000/svg"
  width="24"
  height="24"
  viewBox="0 0 24 24"
  fill="none"
  stroke="currentColor"
  stroke-width="2"
  stroke-linecap="round"
  stroke-linejoin="round"
>
  <path
    fill-rule="evenodd"
    d="M31.414 12.714 30 8c0-1.105-2.988-2-6-2s-6 .895-6 2l-1.414 4.714C13.21 13.436 11 14.639 11 16c0 2.21 5.82 4 13 4s13-1.79 13-4c0-1.361-2.21-2.564-5.586-3.286m-3.282-3.98a4 4 0 0 0-.616-.245C26.623 8.202 25.335 8 24 8s-2.623.202-3.516.49c-.282.09-.483.176-.616.244l-.731 2.437q.294.041.667.086a36.3 36.3 0 0 0 9.06-.086zm1.312 4.374a32 32 0 0 1-1.015.135 38.3 38.3 0 0 1-8.858 0c-.401-.047-.743-.094-1.015-.135l-.395 1.314-1.157.248c-1.584.338-2.756.764-3.48 1.18a4 4 0 0 0-.24.15c.42.283 1.113.61 2.112.917C17.51 17.567 20.552 18 24 18s6.49-.433 8.604-1.083c.999-.307 1.692-.634 2.112-.918a4 4 0 0 0-.24-.148c-.724-.417-1.896-.843-3.48-1.181l-1.157-.248zm5.619 3.185-.007-.011zm-.003-.579.011-.016q.001 0-.01.016m-22.131-.016q.001 0 .01.016-.011-.015-.01-.016m.008.595.007-.011-.002.004zm6.742-7.445-.012.01.016-.014zm8.638-.004.017.014q-.002 0-.017-.014"
    clip-rule="evenodd"
  />
  <path d="M16.002 19.154a8 8 0 0 0 15.997 0 27 27 0 0 1-2.024.4 6 6 0 0 1-11.95 0 27 27 0 0 1-2.023-.4" />
  <path
    fill-rule="evenodd"
    d="M13.83 42c.11-.313.17-.65.17-1v-1h20v-3H30.35l-.177.059c-.336.108-.81.249-1.401.388A21 21 0 0 1 24 38c-1.938 0-3.594-.276-4.771-.553A18 18 0 0 1 17.65 37h-2.333a6 6 0 0 0 1.88-2H18v-5.586A47 47 0 0 1 24 29c6.008 0 18 1.583 18 7v6zm25.005-7.777C39.752 34.908 40 35.494 40 36v4h-4v-4a1 1 0 0 0-1-1v-2.521c1.632.49 2.949 1.082 3.835 1.744M30 31.433c1.003.138 2.017.314 3 .53V35h-3zM24 31a44 44 0 0 1 4 .2v4.37a19 19 0 0 1-4 .43 19 19 0 0 1-4-.43V31.2c1.467-.138 2.848-.2 4-.2"
    clip-rule="evenodd"
  />
  <path d="M8 25a1 1 0 1 0-2 0v7a4 4 0 0 0 4 4v5a1 1 0 1 0 2 0v-5a4 4 0 0 0 4-4v-7a1 1 0 1 0-2 0v7a2 2 0 0 1-2 2v-9a1 1 0 1 0-2 0v9a2 2 0 0 1-2-2z" />
</svg>
